X: 1
T: String Quartet in E Major opus 54 no 3 mvt 4
C: Franz Joseph Haydn
%%abc-version 2.0
%%abcx-abcm2ps-target-version 5.9.1 (29 Sep 2008)
%%abc-creator hum2abc beta
%%abcx-conversion-date 2021/02/14 14:38:18
%%abc-copyright Copyright (c) 1994, 2000 Center for Computer Assisted Research in the Humanities
%%abc-edited-by Frances Bennion
%%abcx-initial-encoding-date 1997/04/15
%%gracespace 0 6 6
%%humdrum-veritas 2270546659
%%humdrum-veritas-data 640995820
%%linebreak <none>
%%barnumbers 0
L: 1/8
M: 2/4
N: Derived from op54n3-04.krn
Q: "Finale: Presto"
%%staves [1 2 3 4]
V: 1
V: 2
V: 3 clef=alto
V: 4 clef=bass
K: E
[V:1]z4 [I:setbarnb2] |
[V:2]G2 AG/A/ |
[V:3]B,2 C2 |
[V:4]E,4- |
[V:1]z4 |
[V:2]Fc cc |
[V:3]A,4- |
[V:4]E,4- |
[V:1]z4 |
[V:2]F2 GF/G/ |
[V:3]A,2 B,2 |
[V:4]E,4- |
[V:1]z4 |
[V:2]EB BB |
[V:3]G,4 |
[V:4]E,4 |
[V:1]z4 |
[V:2]B,2 CB,/C/ |
[V:3]E,4- |
[V:4]G,E, A,E, |
[V:1]z4 |
[V:2]B,E DF |
[V:3]E,B, B,B, |
[V:4]G,G, F,A, |
[V:1]z4 |
[V:2]E3/F//G// AG |
[V:3]B,3/D//E// FE |
[V:4]G,E, D,E, |
[V:1]z4 |
[V:2]FF F^^F |
[V:3]D2 z2 |
[V:4]B,,2 z2 |
[V:1]z4 |
[V:2]G2 AG/A/ |
[V:3]B,2 CB,/C/ |
[V:4]E,4- |
[V:1]zc'/b/ a/g/f/e/ |
[V:2]Fc cc |
[V:3]A,4 |
[V:4]E,4- |
[V:1]d2 z2 |
[V:2]F2 GF/G/ |
[V:3]A,2 B,A,/B,/ |
[V:4]E,4- |
[V:1]ze/f/ g/a/b/c'/ |
[V:2]EB BB |
[V:3]G,4 |
[V:4]E,4- |
[V:1]b2 c'b/c'/ |
[V:2]B2 cB/c/ |
[V:3]GE AE |
[V:4]E,4 |
[V:1]be' c'a |
[V:2]Be cA |
[V:3]GE EE |
[V:4]E,G,, A,,C, |
[V:1]gb fb |
[V:2]GB FB |
[V:3]E2 D2 |
[V:4]B,,2 B,,2 |
[V:1]e4- |
[V:2]EG AB |
[V:3]EE FG |
[V:4]E,2 z2 |
[V:1]e4- |
[V:2]ce Ac |
[V:3]Ac FA |
[V:4]z4 |
[V:1]ee fg |
[V:2]Be de |
[V:3]GB AG |
[V:4]zG, F,E, |
[V:1]ac' fa |
[V:2]fa df |
[V:3]F3 D |
[V:4]D,2 B,2 |
[V:1]ge ee |
[V:2]eG AB |
[V:3]EE FG |
[V:4]E,z3 |
[V:1]e4- |
[V:2]ce Ac |
[V:3]Ac FA |
[V:4]z4 |
[V:1]ee fg |
[V:2]Be de |
[V:3]GB AG |
[V:4]zG,, F,,E,, |
[V:1]ac' fa |
[V:2]fa df |
[V:3]F3 D |
[V:4]D,,2 B,,2 |
[V:1]gg ab |
[V:2]ee fg |
[V:3]E2 z2 |
[V:4]E,,2 z2 |
[V:1]c'e' ac' |
[V:2]ac' fa |
[V:3]z4 |
[V:4]z4 |
[V:1]b4- |
[V:2]gf ga |
[V:3]zD EF |
[V:4]E,2 z2 |
[V:1]b4- |
[V:2]gb eg |
[V:3]EG CE |
[V:4]z4 |
[V:1]b4- |
[V:2]fb df |
[V:3]DF B,D |
[V:4]z4 |
[V:1]b^a c'e |
[V:2]e3 c |
[V:3]C3 F |
[V:4]zF, G,^A, |
[V:1]dB df |
[V:2]B4- |
[V:3]F4- |
[V:4]B,4 |
[V:1]^ac' b=a |
[V:2]B4- |
[V:3]F4 |
[V:4]D,4 |
[V:1]^^fg de |
[V:2]B4 |
[V:3]G4- |
[V:4]E,4- |
[V:1]^Bc G=B |
[V:2]G4 |
[V:3]G2 C2 |
[V:4]E,2 ^E,2 |
[V:1]^AB cc |
[V:2]FG ^AA |
[V:3]C2 zF |
[V:4]F,2 z2 |
[V:1]d2 ed/e/ |
[V:2]B2 cB/c/ |
[V:3]DF CF |
[V:4]z4 |
[V:1]fb bc |
[V:2]d2 z^A |
[V:3]B,2 z2 |
[V:4]z3 F, |
[V:1]d2 ed/e/ |
[V:2]B2 cB/c/ |
[V:3]z4 |
[V:4]D,F, C,F, |
[V:1]fb bf |
[V:2]d2 zd |
[V:3]z3 B |
[V:4]B,,2 z2 |
[V:1]g2 ag/a/ |
[V:2]e2 fe/f/ |
[V:3]GB FB |
[V:4]z4 |
[V:1]be' e'e' |
[V:2]g4 |
[V:3]E2 zE |
[V:4]z3 C |
[V:1]e'2 d'2 |
[V:2]f4 |
[V:3]c^A FB |
[V:4]^A,F, B,B,, |
[V:1]c'c' d'b |
[V:2]g4 |
[V:3]c4- |
[V:4]E,3 ^E, |
[V:1]^af ff |
[V:2]cF FF |
[V:3]cF FF |
[V:4]F,F,, F,F, |
[V:1]^ef =ec |
[V:2]^EF =EC |
[V:3]^EF =EC |
[V:4]^E,F, =E,C, |
[V:1]B2 cB/c/ |
[V:2]F2 G2 |
[V:3]D2 E2 |
[V:4]B,,2 z2 |
[V:1]Bf ff |
[V:2]F2 z2 |
[V:3]D2 z2 |
[V:4]z4 |
[V:1]B2 cB/c/ |
[V:2]B2 ^A2 |
[V:3]F4- |
[V:4]D2 E2 |
[V:1]Bf ff |
[V:2]B2 z2 |
[V:3]F2 z2 |
[V:4]D2 z2 |
[V:1]Ba aa |
[V:2]Ff/e/ d/c/B/A/ |
[V:3]Dd/c/ B/A/G/F/ |
[V:4]D,2 z2 |
[V:1]Bg gg |
[V:2]GB BB |
[V:3]EE, EE |
[V:4]E,2 z2 |
[V:1]c^a aa |
[V:2]^A/B/c/d/ e/d/e/c/ |
[V:3]F/G/^A/B/ c/B/c/A/ |
[V:4]E,2 z2 |
[V:1]B/b/b/b/ c/c'/c'/c'/ |
[V:2]BF FF |
[V:3]B2 z^A |
[V:4]D,B,, ^A,,^A, |
[V:1]d/d'/d'/d'/ e/e'/e'/e'/ |
[V:2]F4- |
[V:3]BB ^AA |
[V:4]B,,B, C,C |
[V:1]f/f'/f'/f'/ f'/d'/b/f/ |
[V:2]F2 zB |
[V:3]B2 zD |
[V:4]D,2 z2 |
[V:1]d/f/f/f/ B/d/d/d/ |
[V:2]dB dB |
[V:3]FD FD |
[V:4]z4 |
[V:1]c/e'/e'/e'/ e'/d'/c'/b/ |
[V:2]^A4- |
[V:3]C4- |
[V:4]F,3 F,, |
[V:1]^a/b/c'/b/ a/g/f/e/ |
[V:2]A4 |
[V:3]C4 |
[V:4]F,F,, F,F,, |
[V:1]d/f'/f'/f'/ f'/d'/b/f/ |
[V:2]B2 zB |
[V:3]D2 zD |
[V:4]B,,2 z2 |
[V:1]d/f/f/f/ B/d/d/d/ |
[V:2]dB dB |
[V:3]FD FD |
[V:4]z4 |
[V:1]c/e'/e'/e'/ e'/d'/c'/b/ |
[V:2]^A4- |
[V:3]C4- |
[V:4]F,3 F,, |
[V:1]^a/b/c'/b/ a/g/f/e/ |
[V:2]A4 |
[V:3]C4 |
[V:4]F,F,, F,F,, |
[V:1]d/f/f/f/ f/b/b/b/ |
[V:2]B2 zd |
[V:3]D2 zB, |
[V:4]B,,2 z2 |
[V:1]b/B/b/B/ a/B/a/B/ |
[V:2]fd fd |
[V:3]DB, DB, |
[V:4]B,,4 |
[V:1]a^^f g^a |
[V:2]e2 z^A |
[V:3]E,2 z2 |
[V:4]E,2 z2 |
[V:1]b^b c'd' |
[V:2]B^B cd |
[V:3]z4 |
[V:4]z4 |
[V:1]e'f' g'^a' |
[V:2]ef g^a |
[V:3]z4 |
[V:4]z4 |
[V:1]b'c'' d''^E |
[V:2]bc' d'^E |
[V:3]z3 ^E, |
[V:4]z3 ^E,, |
[V:1]F^e/f/ e/f/e/f/ |
[V:2]Fd2 d- |
[V:3]F,B2 B- |
[V:4]F,,4- |
[V:1]b/^a/g/f/ e/d/c/B/ |
[V:2]dd2 d |
[V:3]BB2 B, |
[V:4]F,,3 F,, |
[V:1]c4- |
[V:2]e^A AA |
[V:3]^A,E EE |
[V:4]F,F,, zF,, |
[V:1]c3 B/c/ |
[V:2]e^A AA |
[V:3]^A,E EE |
[V:4]F,F,, F,F,, |
[V:1]B4- |
[V:2]F2 GF/G/ |
[V:3]D2 ED/E/ |
[V:4]B,,2 z2 |
[V:1]B4 |
[V:2]E4- |
[V:3]CG GG |
[V:4]z4 |
[V:1]^A/B/c/d/ e/c/e/c/ |
[V:2]E^A, A,A, |
[V:3]F,4 |
[V:4]z4 |
[V:1]B/c/d/e/ f/d/f/d/ |
[V:2]B,2 z2 |
[V:3]B,2 z2 |
[V:4]z4 |
[V:1]B4- |
[V:2]F2 GF/G/ |
[V:3]z4 |
[V:4]D,2 E,D,/E,/ |
[V:1]B4 |
[V:2]E4- |
[V:3]C,4- |
[V:4]C,G, G,G, |
[V:1]^A/B/c/d/ e/c/e/c/ |
[V:2]E^A, A,A, |
[V:3]C,2 C2 |
[V:4]F,,4 |
[V:1]B/c/d/e/ f/d/f/d/ |
[V:2]B,B,/C/ DD |
[V:3]D2 z2 |
[V:4]B,,4 |
[V:1]^A/B/c/d/ e/c/e/c/ |
[V:2]E^A, A,A, |
[V:3]C4 |
[V:4]F,,4 |
[V:1]Bz bz |
[V:2]B,z dz |
[V:3]Dz Fz |
[V:4]B,,z B,,z |
[V:1]B,2 z2 |
[V:2]B,z3 |
[V:3]D2 z2 |
[V:4]B,,2 z2 |
[V:1]z4 |
[V:2]G2 AG/A/ |
[V:3]^B,2 C2 |
[V:4]G,,4- |
[V:1]za/g/ f/e/d/c/ |
[V:2]Fd dd |
[V:3]DF FF |
[V:4]G,,4- |
[V:1]^B2 z2 |
[V:2]F2 GF/G/ |
[V:3]D2 ED/E/ |
[V:4]G,,4- |
[V:1]zg/f/ e/d/c/^B/ |
[V:2]Ec cc |
[V:3]CE EE |
[V:4]G,,4- |
[V:1]c2 z2 |
[V:2]E2 FE/F/ |
[V:3]C2 DC/D/ |
[V:4]G,,4- |
[V:1]z^B/c/ d/e/f/d/ |
[V:2]DF FD |
[V:3]^B,D B,B, |
[V:4]G,,4- |
[V:1]cc/d/ e/f/g/e/ |
[V:2]EG GE |
[V:3]CE CC |
[V:4]G,,4- |
[V:1]dg gg |
[V:2]G^B,/C/ D/E/F/D/ |
[V:3]^B,G,/^A,/ B,/C/D/B,/ |
[V:4]G,,4- |
[V:1]gg gg |
[V:2]CC/D/ E/F/G/E/ |
[V:3]CC/^B,/ C/D/E/C/ |
[V:4]G,,4- |
[V:1]g4- |
[V:2]D2 zE |
[V:3]^B,2 zC |
[V:4]G,,2 zG,, |
[V:1]g4- |
[V:2]DE DE |
[V:3]^B,C B,C |
[V:4]G,,G,, G,,G,, |
[V:1]g4 |
[V:2]D4 |
[V:3]^B,4 |
[V:4]G,,4 |
[V:1]g2 ag/a/ |
[V:2]z4 |
[V:3]B,2 C2 |
[V:4]E,,4- |
[V:1]fc' c'c' |
[V:2]zc/B/ A/G/F/E/ |
[V:3]A,4 |
[V:4]E,,4- |
[V:1]f2 gf/g/ |
[V:2]D2 z2 |
[V:3]A,2 B,A,/B,/ |
[V:4]E,,4- |
[V:1]eb bb |
[V:2]zE/F/ G/A/B/c/ |
[V:3]G,4 |
[V:4]E,,2 z2 |
[V:1]B2 cB/c/ |
[V:2]B2 z2 |
[V:3]GE AE |
[V:4]z4 |
[V:1]Be ee |
[V:2]z4 |
[V:3]G2 z2 |
[V:4]z4 |
[V:1]B^e ee |
[V:2]GB BB |
[V:3]^EG GG |
[V:4]CC, C,C, |
[V:1]Af ff |
[V:2]FA AA |
[V:3]FC CC |
[V:4]F,F,, F,,F,, |
[V:1]c2 =dc/d/ |
[V:2]AF BF |
[V:3]z4 |
[V:4]z4 |
[V:1]cf ff |
[V:2]A2 z2 |
[V:3]z4 |
[V:4]z4 |
[V:1]c^^f ff |
[V:2]^Ac cc |
[V:3]^^F^A AA |
[V:4]DD, D,D, |
[V:1]Bg gg |
[V:2]Bd dd |
[V:3]GB, B,B, |
[V:4]G,G,, G,,G,, |
[V:1]dd' d'd' |
[V:2]db bb |
[V:3]B,G GG |
[V:4]B,B,, B,,B,, |
[V:1]dc' c'c' |
[V:2]d^a aa |
[V:3]^AD DD |
[V:4]^^F,^^F,, F,,F,, |
[V:1]db bb |
[V:2]dg gg |
[V:3]GD DD |
[V:4]G,G,, G,,G,, |
[V:1]^a^^f dd |
[V:2]^^f2 z2 |
[V:3]D4 |
[V:4]D,4- |
[V:1]d2 ed/e/ |
[V:2]z4 |
[V:3]B,2 CB,/C/ |
[V:4]D,4- |
[V:1]ce' e'e' |
[V:2]z^^F/G/ ^A/B/c/A/ |
[V:3]^A,4 |
[V:4]D,4- |
[V:1]c2 dc/d/ |
[V:2]^^F2 z2 |
[V:3]^A,2 B,A,/B,/ |
[V:4]D,4- |
[V:1]Bd' d'd' |
[V:2]zG/^A/ B/c/d/B/ |
[V:3]G,4 |
[V:4]D,4- |
[V:1]B2 cB/c/ |
[V:2]G2 z2 |
[V:3]G,2 ^A,G,/A,/ |
[V:4]D,4- |
[V:1]^Ac' c'c' |
[V:2]zc cc |
[V:3]^^F,4 |
[V:4]D,4 |
[V:1]z^a aa |
[V:2]z^A AA |
[V:3]D4- |
[V:4]^^F,4 |
[V:1]zb bb |
[V:2]zB BB |
[V:3]D4- |
[V:4]G,4 |
[V:1]za aa |
[V:2]zA AA |
[V:3]D4 |
[V:4]F,4 |
[V:1]zg gg |
[V:2]zG GG |
[V:3]E4 |
[V:4]E,4 |
[V:1]zf ff |
[V:2]zF FF |
[V:3]^B,4 |
[V:4]D,4 |
[V:1]ze ee |
[V:2]zE EE |
[V:3]C4 |
[V:4]C,4 |
[V:1]zc cc |
[V:2]z^^F FF |
[V:3]D3 C |
[V:4]A,,4 |
[V:1]^BG GG |
[V:2]GG GG |
[V:3]G,G GG |
[V:4]G,,G, G,G, |
[V:1]GA FD |
[V:2]GA FD |
[V:3]GA FD |
[V:4]G,A, F,D, |
[V:1]c4- |
[V:2]G2 AG/A/ |
[V:3]E2 FE/F/ |
[V:4]C,2 z2 |
[V:1]c^B BB |
[V:2]F4 |
[V:3]D4 |
[V:4]zA,/G,/ F,/E,/D,/C,/ |
[V:1]d2 ed/e/ |
[V:2]F2 GF/G/ |
[V:3]G,2 z2 |
[V:4]^B,,2 z2 |
[V:1]dc cc |
[V:2]E4 |
[V:3]zC/D/ E/F/G/A/ |
[V:4]z4 |
[V:1]cB BB |
[V:2]D4 |
[V:3]B,2 z2 |
[V:4]zB,,/C,/ D,/E,/F,/G,/ |
[V:1]BA AA |
[V:2]C4 |
[V:3]zA,/B,/ C/D/E/F/ |
[V:4]A,,2 z2 |
[V:1]AG GG |
[V:2]B,4 |
[V:3]G,2 z2 |
[V:4]zG,,/A,,/ B,,/C,/D,/E,/ |
[V:1]GF FE |
[V:2]C4 |
[V:3]z4 |
[V:4]A,,2 ^A,,2 |
[V:1]D2 ED/E/ |
[V:2]B,2 CB,/C/ |
[V:3]z4 |
[V:4]B,,2 z2 |
[V:1]F2 z2 |
[V:2]D2 z2 |
[V:3]D,2 E,D,/E,/ |
[V:4]B,,2 =C,B,,/C,/ |
[V:1]F2 GF/G/ |
[V:2]D2 ED/E/ |
[V:3]D,2 z2 |
[V:4]B,,2 z2 |
[V:1]A2 z2 |
[V:2]F2 z2 |
[V:3]D,2 E,D,/E,/ |
[V:4]B,,2 =C,B,,/C,/ |
[V:1]d2 ed/e/ |
[V:2]F2 GF/G/ |
[V:3]D,2 z2 |
[V:4]B,,2 z2 |
[V:1]f2 z2 |
[V:2]A2 z2 |
[V:3]D,2 E,D,/E,/ |
[V:4]B,,2 =C,B,,/C,/ |
[V:1]f2 gf/g/ |
[V:2]d2 ed/e/ |
[V:3]D,2 z2 |
[V:4]B,,2 z2 |
[V:1]a4- |
[V:2]f2 e2 |
[V:3]D2 ED/E/ |
[V:4]B,,2 =C,B,,/C,/ |
[V:1]ad dd |
[V:2]fF FF |
[V:3]FA AA |
[V:4]A,,=C CC |
[V:1]=c'd dd |
[V:2]fA AA |
[V:3]D=c cc |
[V:4]A,,F FF |
[V:1]be ee |
[V:2]eB BB |
[V:3]EG GG |
[V:4]G,,G GG |
[V:1]=d'^e ee |
[V:2]bB BB |
[V:3]^E=d dd |
[V:4]G,,G GG |
[V:1]c'f ff |
[V:2]ac cc |
[V:3]FA AA |
[V:4]A,,F FF |
[V:1]z4 |
[V:2]z4 |
[V:3]z4 |
[V:4]z4 |
[V:1]z4 |
[V:2]z4 |
[V:3]z4 |
[V:4]z4 |
[V:1]f2 gf/g/ |
[V:2]c2 =d2 |
[V:3]A2 B2 |
[V:4]F4- |
[V:1]fc' c'c' |
[V:2]c2 z2 |
[V:3]A2 z2 |
[V:4]F4 |
[V:1]z4 |
[V:2]z4 |
[V:3]z4 |
[V:4]z4 |
[V:1]z4 |
[V:2]z4 |
[V:3]z4 |
[V:4]z4 |
[V:1]f2 =gf/g/ |
[V:2]c2 =d2 |
[V:3]A2 B2 |
[V:4]F4 |
[V:1]eb bb |
[V:2]=d4- |
[V:3]B4- |
[V:4]=G4 |
[V:1]e=d' d'd' |
[V:2]d4 |
[V:3]B4 |
[V:4]G4 |
[V:1]ec' c'c' |
[V:2]c4 |
[V:3]A4 |
[V:4]A4- |
[V:1]fd' d'd' |
[V:2]d4 |
[V:3]B4- |
[V:4]A4 |
[V:1]ee' e'e' |
[V:2]e4- |
[V:3]B4 |
[V:4]G4 |
[V:1]f^a aa |
[V:2]e4 |
[V:3]^A4 |
[V:4]C4 |
[V:1]db bb |
[V:2]d4 |
[V:3]B4 |
[V:4]B,4 |
[V:1]b2 c'b/c'/ |
[V:2]^e4 |
[V:3]G4 |
[V:4]B,,4- |
[V:1]af' f'f' |
[V:2]fa/g/ f/g/f/e/ |
[V:3]Ac/B/ A/B/A/G/ |
[V:4]B,,4- |
[V:1]a2 ba/b/ |
[V:2]d4 |
[V:3]F4 |
[V:4]B,,4- |
[V:1]ge' e'e' |
[V:2]e2 z2 |
[V:3]G2 z2 |
[V:4]B,,2 z2 |
[V:1]z4 |
[V:2]E2 FE/F/ |
[V:3]B,2 C2 |
[V:4]G,2 A,2 |
[V:1]z4 |
[V:2]EB BB |
[V:3]B,2 z2 |
[V:4]G,2 z2 |
[V:1]E2 FE/F/ |
[V:2]E2 D2 |
[V:3]B,4- |
[V:4]G,2 A,2 |
[V:1]EB BB |
[V:2]E2 z2 |
[V:3]B,2 z2 |
[V:4]G,2 z2 |
[V:1]E=d dd |
[V:2]B,B/A/ G/F/E/=D/ |
[V:3]G,G/F/ E/=D/C/B,/ |
[V:4]G,,2 z2 |
[V:1]Ec cc |
[V:2]CE EE |
[V:3]A,A, A,A, |
[V:4]A,,2 z2 |
[V:1]Fd dd |
[V:2]D/E/F/G/ A/G/A/F/ |
[V:3]B,/C/D/E/ F/E/F/D/ |
[V:4]A,,2 z2 |
[V:1]E/e/e/e/ F/f/f/f/ |
[V:2]EB BB |
[V:3]E2 zD |
[V:4]G,,E,, D,,D, |
[V:1]G/g/g/g/ A/a/a/a/ |
[V:2]B4- |
[V:3]EE DD |
[V:4]E,,E, F,,F, |
[V:1]B/b/b/b/ b/g/e/B/ |
[V:2]B2 zE |
[V:3]E2 zG, |
[V:4]G,,2 z2 |
[V:1]G/B/B/B/ E/G/G/G/ |
[V:2]GE GE |
[V:3]B,G, B,G, |
[V:4]z4 |
[V:1]F/a/a/a/ a/g/f/e/ |
[V:2]D4- |
[V:3]F,4- |
[V:4]B,3 B,, |
[V:1]d/e/f/e/ d/c/B/A/ |
[V:2]D4 |
[V:3]F,4 |
[V:4]B,B,, B,B,, |
[V:1]G/b/b/b/ b/g/e/B/ |
[V:2]E2 zE |
[V:3]G,2 zG, |
[V:4]E,2 z2 |
[V:1]G/B/B/B/ E/G/G/G/ |
[V:2]GE GE |
[V:3]B,G, B,G, |
[V:4]z4 |
[V:1]F/a/a/a/ a/g/f/e/ |
[V:2]D4- |
[V:3]F,4- |
[V:4]B,3 B,, |
[V:1]d/e/f/e/ d/c/B/A/ |
[V:2]D4 |
[V:3]F,4 |
[V:4]B,B,, B,B,, |
[V:1]G/b/b/b/ b/g/e/B/ |
[V:2]E2 zB |
[V:3]E,2 zE |
[V:4]E,2 zG, |
[V:1]A/c'/c'/c'/ c'/a/f/e/ |
[V:2]c2 zc |
[V:3]E2 zF |
[V:4]A,2 z^A, |
[V:1]d/f'/f'/f'/ f'/d'/b/a/ |
[V:2]d2 zf |
[V:3]F2 zB |
[V:4]B,2 zD, |
[V:1]g/b'/b'/b'/ b'/g'/e'/b/ |
[V:2]g2 zb |
[V:3]B2 zE |
[V:4]E,2 zG,, |
[V:1]c'/e'/c'/e'/ a/c'/a/c'/ |
[V:2]e2 z2 |
[V:3]E2 z2 |
[V:4]A,,2 z2 |
[V:1]f/a/f/a/ d/f/d/f/ |
[V:2]z4 |
[V:3]z4 |
[V:4]z4 |
[V:1]A/d/f/d/ a/d/f/d/ |
[V:2][A4-D4] |
[V:3]F4- |
[V:4]B,,4- |
[V:1]A/d/f/d/ a/d/f/d/ |
[V:2][A4D4-] |
[V:3]F4- |
[V:4]B,,4- |
[V:1]AB df |
[V:2][A4D4-] |
[V:3]F4- |
[V:4]B,,4- |
[V:1]ab c'b |
[V:2][A4D4-] |
[V:3]F4- |
[V:4]B,,4- |
[V:1]a2 a2 |
[V:2][A2D2] d2 |
[V:3]F2 F2 |
[V:4]B,,2 B,,2 |
[V:1]a2 a2 |
[V:2]d2 d2 |
[V:3]F2 F2 |
[V:4]B,,2 B,,2 |
[V:1]a4 |
[V:2]d4 |
[V:3]F4 |
[V:4]B,,4 |
[V:1]E2 FE/F/ |
[V:2]B,2 =C2 |
[V:3]=G,2 A,2 |
[V:4]z4 |
[V:1]EB BB |
[V:2]B,2 z2 |
[V:3]=G,2 z2 |
[V:4]z4 |
[V:1]z4 |
[V:2]z4 |
[V:3]z4 |
[V:4]z4 |
[V:1]=F=c cc |
[V:2]=C4 |
[V:3]A,4 |
[V:4]z4 |
[V:1]G=d dd |
[V:2]=D4 |
[V:3]B,4 |
[V:4]z4 |
[V:1]Ae ee |
[V:2]E4- |
[V:3]=C4- |
[V:4]z4 |
[V:1]^Ae ee |
[V:2]E^A AA |
[V:3]^B,=G, G,G, |
[V:4]=C,,=C, C,C, |
[V:1]B/e/e/e/ e/g/g/g/ |
[V:2]BE2 E- |
[V:3]G,4- |
[V:4]B,,4- |
[V:1]g/b/b/b/ b/e'/e'/e'/ |
[V:2]EE2 E |
[V:3]G,4 |
[V:4]B,,4 |
[V:1]e'/d'/e'/d'/ e'/d'/e'/d'/ |
[V:2]gg gg |
[V:3]E,E EE |
[V:4]B,,B,, B,,B,, |
[V:1]e'/d'/c'/b/ a/g/f/e/ |
[V:2]g4 |
[V:3]E4 |
[V:4]B,,3 B,, |
[V:1]f4- |
[V:2]ad dd |
[V:3]DA AA |
[V:4]B,B,, zB,, |
[V:1]f3 e/f/ |
[V:2]ad dd |
[V:3]DA AA |
[V:4]B,B,, B,B,, |
[V:1]e4- |
[V:2]B2 cB/c/ |
[V:3]G2 AG/A/ |
[V:4]E,2 z2 |
[V:1]e4 |
[V:2]A4- |
[V:3]Fc cc |
[V:4]z4 |
[V:1]d/e/f/g/ a/f/a/f/ |
[V:2]AD DD |
[V:3]B,4 |
[V:4]z4 |
[V:1]e/f/g/a/ b/g/b/g/ |
[V:2]E2 z2 |
[V:3]E2 z2 |
[V:4]z4 |
[V:1]e4- |
[V:2]B2 cB/c/ |
[V:3]z4 |
[V:4]G,2 A,G,/A,/ |
[V:1]e4 |
[V:2]A4- |
[V:3]F,4- |
[V:4]F,C CC |
[V:1]d/e/f/g/ a/f/a/f/ |
[V:2]AD DD |
[V:3]F,2 F2 |
[V:4]B,,4 |
[V:1]e/f/g/a/ b/g/b/g/ |
[V:2]EE/F/ GG |
[V:3]G2 z2 |
[V:4]E,4 |
[V:1]d/e/f/g/ a/f/a/f/ |
[V:2]AD DD |
[V:3]F4 |
[V:4]B,,4 |
[V:1]e2 [E2g2B2] |
[V:2]E2 [e2E2B2] |
[V:3]G2 E2 |
[V:4]E,2 E,,2 |
[V:1][e2B2E2] z2 |]
[V:2][e2B2E2] z2 |]
[V:3]E,2 z2 |]
[V:4]E,,2 z2 |]

